!!!OTL@@DE: Der Tyroler und sein Kind
!!!COM: Nesm&uuml;ller, Jos. Ferdinand
!!!ODT: 1848
!!!OMD: M&auml;ssig langsam
!!!ONB: Aus dem Liederspiel: "Die Zillerthaler" von J.F. Nesm&uuml;ller
!!!LDT: 1848
!!!OCL: Erk, Ludwig
!!!GCO: Deutscher Liederschatz, Band 1
**kern	**kern	**kern
*staff3	*staff2	*staff1
*clefF4	*clefG2	*clefG2
*Ipiano	*Ipiano	*Ivox
*k[b-e-a-]	*k[b-e-a-]	*k[b-e-a-]
*E-:	*E-:	*E-:
*M3/4	*M3/4	*M3/4
4r	4r	4g/
=1	=1	=1
2BBB-/	8r	8a-/
.	(8B-/L	8d/
.	8f/ 8a-/	4.dd^\
.	8B-/	.
4BB-/	8d/ 8a-/	.
.	8B-/J)	8cc\
=2	=2	=2
2EE-/	8r	8b-\
.	(8B-/L	8e-/
.	8e-/ 8g/	4.g/
.	8B-/	.
4E-\	8e-/ 8g/	.
.	8B-/J)	8b-\
=3	=3	=3
2BB-/	8r	8b-\
.	(8B-/L	8an/
.	8d/ 8f/	8a-/
.	8B-/	8g/
4BB-/	8d/ 8f/	8a-/
.	8B-/) 8a-/J	8cc\
=4	=4	=4
(4EE-/	(8g/L	4b-\
.	8B-/	.
4GG/	8e-/ 8g/	4r
.	8B-/	.
4BB-/)	8e-/ 8g/	4g/
.	8B-/J)	.
=5	=5	=5
2BBB-/ 2DD/	8r	8a-/
.	(8B-/L	8d/
.	8f/ 8a-/	4.dd^\
.	8B-/	.
4BB-/	8d/ 8a-/	.
.	8B-/J)	8cc\
=6	=6	=6
2EE-/	8r	8b-\
.	(8B-/L	8e-/
.	8e-/ 8g/	4.g/
.	8B-/	.
4E-\	8e-/ 8g/	.
.	8B-/J)	8b-\
=7	=7	=7
2AA-/	8r	8b-^\
.	(8c/L	8an/
.	8f/ 8a-/	8a-/
.	8c/	8g/
4BB-/	8A-/ 8d/	8a-/
.	8B-/J)	8d/
=8	=8	=8
(8EE-/L	4G/ 4e-/	4e-/
8BB-/J	.	.
4E-\)	4r	4r
4r	4B-/ 4e-/ 4g/	4g/
=9	=9	=9
*	*^	*
8FF\L	8.f/L	4An\ 4e-\	8.f/
(8F\	.	.	.
.	16f/Jk	.	16f/
*	*v	*v	*
8B-\ 8e-\	4g/	4g/
8F\	.	.
8c\ 8e-\	4an/	4an/
8F\J)	.	.
=10	=10	=10
8BB-\L	8b-\L	8b-\
(8F\	8cc\J	8cc\
8B-\ 8d\	4.dd\	4.dd\
8F\	.	.
8B-\ 8d\	.	.
8F\J)	8dd\	8dd\
=11	=11	=11
8FF\L	8dd\L	8dd\
(8F\	8cc\J	8cc\
8An\ 8c\	4.ee-\	4.ee-\
8F\	.	.
8c\ 8e-\	.	.
8F\J)	8an/	8an/
=12	=12	=12
8BB-\L	8dd/L	8dd\
(8F\	8f/J	8f/
8B-\ 8d\	4.b-\	4.b-\
8F\J	.	.
8B-\ 8d\)	.	.
8r	8b-\	8b-\
=13	=13	=13
8BBB-/L	8d/ 8b-/L	8b-\
(8BB-/	8f/J	8a-/
8D/	4.a-/ 4.cc/	4.cc^\
8BB-/	.	.
8D/	.	.
8BB-/J)	8g/ 8b-/	8b-\
=14	=14	=14
8EE-/L	(8.f/ 8.a-/L	8.a-/
(8BB-/	.	.
.	16e-/) 16g/Jk	16g/
8E-/	4e-/ 4g/	4g/
8BB-/	.	.
8E-/	8r	8r
8BB-/J)	8e-/ 8g/	8g/
=15	=15	=15
*^	*	*
8r	2AA-\	8c/ (8g/L	8g/
(8A-/L	.	8f/J	8f/
8C/ 8F/	.	4.a-/	4.a-^/
8A-/	.	.	.
8F/	4BB-\	.	.
8A-/J)	.	8d/)	8d/
=16	=16	=16	=16
8r	2C\	(8.f/L	8.f/
(8G/L	.	.	.
.	.	16e-/Jk)	16e-/
8c/	.	4e-/	4e-/
8G/	.	.	.
8E-/	4r	8r	8r
8C/J)	.	8e-/	8e-/
*v	*v	*	*
=17	=17	=17
8AA-\L	4.e-/ 4.a-/ (4.cc/	4.cc\
(8E-\	.	.
8A-\ 8c\	.	.
8E-\	8b-\ 8dd\L	8dd\
8A-\ 8c\	8cc\ 8ee-\	8ee-\
8E-\J)	8a-\ 8cc\J)	8cc\
=18	=18	=18
8EE-\L	8b-\ (8dd\L	8dd\
8E-\	8a-\ 8cc\J)	8cc\
8G\	4.g/ 4.b-/	4.b-\
8B-\	.	.
8e-\J	.	.
8r	8g/	8b-\
=19	=19	=19
*^	*	*
8r	2BB-\	(8g/ 8b-/L	8b-\
4B-/	.	8f#/ 8an/	8an/
.	.	8fn/ 8a-/	8a-/
4B-/	.	8en/ 8g/	8g/
.	4BB-\	8f/ 8a-/	8a-/
8A-/ 8B-/	.	8d/J)	8d/
*v	*v	*	*
=20	=20	=20
4E-\ 4G\ 4B-\	4e-/	4e-/
4EE-/	4r	4r
==	==	==
*-	*-	*-
!!!ENC: Craig Stuart Sapp
!!!END: 2004/06/08/
!!!EFL: 119/651
